docs/images/meteogate-logo.svg

<?xml version="1.0" encoding="UTF-8"?>
<svg viewBox="88 88 782 200" version="1.1" xmlns="http://www.w3.org/2000/svg" xmlns:xlink="http://www.w3.org/1999/xlink">
    <title>Logo MeteoGate EUMETNET (flat)</title>
    <g id="Logo-MeteoGate-EUMETNET-(flat)" stroke="none" stroke-width="1" fill="none" fill-rule="evenodd">
        <g id="Meteogate-icon" transform="translate(88, 88)" fill="#ffffff">
            <path d="M87.625,0 C136.018951,0 175.25,39.2310488 175.25,87.625 C175.25,136.018951 136.018951,175.25 87.625,175.25 C39.2310488,175.25 0,136.018951 0,87.625 C0,39.2310488 39.2310488,0 87.625,0 Z M74.8653418,33.3313522 C38.2642702,33.3313522 8.59323923,63.0023831 8.59323923,99.6034547 C8.59323923,107.348122 9.92170546,114.782508 12.363193,121.691171 C12.1095598,119.702404 11.9784547,117.675577 11.9784547,115.618128 C11.9784547,89.4436876 33.1970309,68.2251114 59.371471,68.2251114 C85.5459112,68.2251114 106.764487,89.4436876 106.764487,115.618128 C106.764487,141.792568 85.5459112,163.011144 59.371471,163.011144 C57.8436618,163.011144 56.3327376,162.938851 54.8419327,162.797498 C61.1594018,164.796797 67.8863927,165.875557 74.8653418,165.875557 C111.466413,165.875557 141.137444,136.204526 141.137444,99.6034547 C141.137444,63.0023831 111.466413,33.3313522 74.8653418,33.3313522 Z M47.9138187,97.1296434 C31.9502865,97.1296434 19.0092868,110.070643 19.0092868,126.034175 C19.0092868,131.665872 20.6198894,136.921393 23.4056075,141.36525 C26.0244053,144.589737 28.9409931,147.562876 32.1128392,150.243409 C36.654751,153.211982 42.0826357,154.938707 47.9138187,154.938707 C63.8773509,154.938707 76.8183507,141.997708 76.8183507,126.034175 C76.8183507,110.070643 63.8773509,97.1296434 47.9138187,97.1296434 Z" id="Combined-Shape"></path>
        </g>
        <path d="M321.157691,105.576658 L321.157691,110.472189 L307.531285,110.472189 C306.451635,110.608922 305.659003,110.926915 305.15339,111.426168 C304.647777,111.92542 304.352919,112.681235 304.268818,113.693612 L304.268818,120.136459 L319.045876,120.327255 L319.045876,125.151595 L304.268818,125.342391 L304.268818,131.799488 C304.308926,132.818583 304.603783,133.600076 305.15339,134.143969 C305.702996,134.687861 306.495628,134.98255 307.531285,135.028036 L321.157691,135.028036 L321.157691,140.030262 L307.531285,140.593939 C304.603305,140.568534 302.442413,140.1312 301.048611,139.281937 C299.654809,138.432675 298.770928,137.014708 298.39697,135.028036 L298.39697,111.426168 C298.650858,109.190687 299.534738,107.535256 301.048611,106.459873 C302.562484,105.38449 304.723375,104.877061 307.531285,104.937587 L321.157691,105.576658 Z M324.5,104.89697 L330.545275,104.89697 L330.545275,129.891209 C330.763852,133.492785 333.290665,135.293573 338.125714,135.293573 C342.960763,135.293573 345.487576,133.492785 345.706153,129.891209 L345.706153,104.89697 L351.751428,104.89697 L351.751428,129.891209 C351.727098,137.014249 347.185193,140.575769 338.125714,140.575769 C329.066235,140.575769 324.52433,137.014249 324.5,129.891209 L324.5,104.89697 Z M358.472017,104.89697 L364.373245,104.89697 L372.961211,133.134736 L381.549176,104.89697 L387.450404,104.89697 L391.672421,140.384973 L385.750631,140.384973 L382.899399,115.199939 L375.634241,140.384973 L370.288181,140.384973 L363.023022,115.199939 L360.17179,140.384973 L354.25,140.384973 L358.472017,104.89697 Z M416.760721,105.576658 L416.760721,110.472189 L403.134315,110.472189 C402.054665,110.608922 401.262033,110.926915 400.75642,111.426168 C400.250807,111.92542 399.955949,112.681235 399.871848,113.693612 L399.871848,120.136459 L414.648907,120.327255 L414.648907,125.151595 L399.871848,125.342391 L399.871848,131.799488 C399.911956,132.818583 400.206813,133.600076 400.75642,134.143969 C401.306027,134.687861 402.098659,134.98255 403.134315,135.028036 L416.760721,135.028036 L416.760721,140.030262 L403.134315,140.593939 C400.206335,140.568534 398.045444,140.1312 396.651641,139.281937 C395.257839,138.432675 394.373959,137.014708 394,135.028036 L394,111.426168 C394.253888,109.190687 395.137769,107.535256 396.651641,106.459873 C398.165514,105.38449 400.326405,104.877061 403.134315,104.937587 L416.760721,105.576658 Z M420.2,104.89697 L446.49165,104.89697 L446.49165,110.376018 L436.384398,110.473708 L436.384398,140.384973 L430.307252,140.384973 L430.307252,110.473708 L420.2,110.473708 L420.2,104.89697 Z M449.75,104.89697 L454.603474,104.89697 L470.805108,130.2728 L470.805108,104.89697 L476.809289,104.89697 L476.809289,140.384973 L471.947259,140.384973 L455.844285,115.199939 L455.844285,140.384973 L449.75,140.384973 L449.75,104.89697 Z M503.260721,105.576658 L503.260721,110.472189 L489.634315,110.472189 C488.554665,110.608922 487.762033,110.926915 487.25642,111.426168 C486.750807,111.92542 486.455949,112.681235 486.371848,113.693612 L486.371848,120.136459 L501.148907,120.327255 L501.148907,125.151595 L486.371848,125.342391 L486.371848,131.799488 C486.411956,132.818583 486.706813,133.600076 487.25642,134.143969 C487.806027,134.687861 488.598659,134.98255 489.634315,135.028036 L503.260721,135.028036 L503.260721,140.030262 L489.634315,140.593939 C486.706335,140.568534 484.545444,140.1312 483.151641,139.281937 C481.757839,138.432675 480.873959,137.014708 480.5,135.028036 L480.5,111.426168 C480.753888,109.190687 481.637769,107.535256 483.151641,106.459873 C484.665514,105.38449 486.826405,104.877061 489.634315,104.937587 L503.260721,105.576658 Z M506.5,104.89697 L532.79165,104.89697 L532.79165,110.376018 L522.684398,110.473708 L522.684398,140.384973 L516.607252,140.384973 L516.607252,110.473708 L506.5,110.473708 L506.5,104.89697 Z M306.45,157.67 L320.728317,157.67 L342.028955,228.004167 L363.204758,157.67 L377.5,157.67 L387.9,245.5 L373.564065,245.5 L366.195,182.7 L348.798347,245.5 L335,245.5 L317.5,183.05 L310.5,245.5 L296.3,245.5 L306.45,157.67 Z M443.624523,185.716767 C448.429847,189.98673 448.9,197.946796 448.9,202.052754 C448.9,208.461419 448,218.968185 429,218.968185 L410.471329,218.968185 C410.622907,225.361023 411.961584,229.672977 414.487359,231.904048 C416.495917,233.780765 420.341247,234.825712 426.023348,235.03889 L447,235.03889 L447,243.72 C442.407598,244.521966 434.972436,246.173815 423.616852,246.1 C418.081536,246.046334 407.20821,245.573807 401.874625,239.000992 C396.442962,232.659184 395.869256,221.149131 395.850499,213.429908 L395.85,213.012673 C395.85,205.513269 396.486335,193.72702 401.854064,187.744844 C407.181156,181.295544 418.149965,180.918579 423.486648,180.900793 L424.009506,180.9 C429.118917,180.9 438.843729,181.468601 443.624523,185.716767 Z M424,191.6 C418.748826,191.452116 415.152919,192.691597 413.212279,195.318442 C411.311811,197.86407 410.341001,202.77459 410.299851,210.05 L428.967075,210.05 C431.355692,209.842763 433.1,209.201638 434.2,208.126625 C435.850193,206.514104 435.850193,203.243629 435.850193,202.346158 C435.850193,200.248959 435.624996,195.812921 432.69427,193.658609 C430.760039,192.202725 427.861949,191.516522 424,191.6 Z M464.94,181.715777 L467.092518,163.86 L478.637029,163.86 L478.637029,181.715777 L494.81,181.715777 L494.81,193.615 L478.637029,193.615 L478.64,224.115348 C478.711144,227.288103 479.35308,229.650369 480.565807,231.202146 C481.778534,232.753923 483.672372,233.636376 486.247323,233.849503 L494.1,234.68 L494.1,245.500437 L482.006184,245.500437 C475.500849,245.27737 470.865731,243.523998 468.100828,240.240322 C465.334184,237.079559 463.967241,231.704567 464,224.115348 L464.47,193.615 L454.47,193.615 L454.47,184.109176 L464.94,181.715777 Z M550.274523,185.716767 C555.079847,189.98673 555.55,197.946796 555.55,202.052754 C555.55,208.461419 554.65,218.968185 535.65,218.968185 L517.121329,218.968185 C517.272907,225.361023 518.611584,229.672977 521.137359,231.904048 C523.145917,233.780765 526.991247,234.825712 532.673348,235.03889 L553.65,235.03889 L553.65,243.72 C549.057598,244.521966 541.622436,246.173815 530.266852,246.1 C524.731536,246.046334 513.85821,245.573807 508.524625,239.000992 C503.092962,232.659184 502.519256,221.149131 502.500499,213.429908 L502.5,213.012673 C502.5,205.513269 503.136335,193.72702 508.504064,187.744844 C513.831156,181.295544 524.799965,180.918579 530.136648,180.900793 L530.659506,180.9 C535.768917,180.9 545.493729,181.468601 550.274523,185.716767 Z M530.65,191.6 C525.398826,191.452116 521.802919,192.691597 519.862279,195.318442 C517.961811,197.86407 516.991001,202.77459 516.949851,210.05 L535.617075,210.05 C538.005692,209.842763 539.75,209.201638 540.85,208.126625 C542.500193,206.514104 542.500193,203.243629 542.500193,202.346158 C542.500193,200.248959 542.274996,195.812921 539.34427,193.658609 C537.410039,192.202725 534.511949,191.516522 530.65,191.6 Z M616.3,188.011147 C620.480889,192.751912 622.547556,201.248196 622.5,213.5 C622.683755,225.144268 620.717088,233.530536 616.6,238.658804 C610.627276,245.852777 600.357606,246.092267 594.329,246.100223 L593.75,246.100496 C587.820434,246.100496 576.982036,245.58328 571.3,238.658804 C567.152909,233.956363 565.069576,225.570095 565.05,213.5 C565.016667,201.194272 567.066667,192.697988 571.2,188.011147 C577.104762,181.315661 587.393383,180.923462 592.95271,180.901292 L594.546828,180.900768 C600.100147,180.916125 610.327301,181.238626 616.3,188.011147 Z M594.103438,192.500579 L593.596534,192.500361 C590.947191,192.504491 585.73443,192.648707 582.777611,197.081013 C580.763547,200.100121 579.764636,205.573146 579.780878,213.500088 C579.790417,221.275244 580.80557,226.6774 582.826339,229.706556 C585.595046,234.167075 590.876312,234.500248 593.765634,234.500248 L594.138706,234.499863 C597.087671,234.491316 602.019306,234.293195 604.899838,229.706556 C606.905987,226.403096 607.864292,221.00094 607.774753,213.500088 C607.797926,205.607882 606.790893,200.134857 604.753656,197.081013 C601.825127,192.691113 596.797519,192.5082 594.103438,192.500579 Z M638.734261,168.003774 C643.805725,160.20105 652.460971,156.483126 664.7,156.85 C674.11847,156.85 683.575137,158.036667 693.07,160.41 L693.07,171.725616 C671.531084,169.219934 658.885481,169.504997 655.13319,172.580804 C646.613048,178.093598 647.199258,193.652614 647.131182,201.449446 C647.063107,209.246279 647.089942,226.482548 654.718728,230.468171 C662.359543,234.568164 674.938695,231.882174 682.83,229.32 L682.83,209.08937 L665.108232,209.08937 L665.108232,197.667019 C670.619881,197.030316 675.999535,196.643929 681.247195,196.507856 C686.494854,196.371784 691.745789,196.48252 697,196.840064 L697,245.5 L685.93,245.5 L683.903,239.430664 C675.630028,244.066521 667.229028,246.289633 658.7,246.1 C649.612348,245.839693 642.957101,242.407632 638.734261,235.803816 C634.51142,229.200001 632.4,217.757062 632.4,201.475 C632.303461,185.782058 634.414881,174.624982 638.734261,168.003774 Z M755.782557,185.494336 C759.756349,188.671872 761.782273,193.840427 761.860328,201 L761.860328,245.5 L750.31517,245.5 L747.819763,238.605992 C746.955706,239.368409 736.530654,246.210143 724.501081,246.210143 C720.291226,246.210143 716.762757,245.192629 713.454662,242.500261 C710.155069,239.71225 708.3,235.5 708.3,230 L708.3,225.01934 C708.3,222.66626 708.487893,217.383882 713.097445,213.046198 C716.49955,209.679695 722.166665,208.13382 728,208.13382 L747.102707,208.13382 C747.165815,200.665235 747.165815,197.387433 744.398623,195.033222 C742.553829,193.463748 739.087621,192.594591 734,192.425751 L712.95,192.425751 L712.95,183.859848 C722.97771,181.160495 731.926438,180.908633 736.470666,180.90023 L738.091103,180.899699 C742.788794,180.911504 750.384198,181.177683 755.782557,185.494336 Z M747.11,215.15 L733.342728,215.85697 C730.039285,216.132465 727.494283,216.99327 725.70772,218.439382 C723.883105,219.964054 722.963848,222.168399 722.949949,225.052418 L722.949949,228.01928 C723.026507,230.86653 724.004942,232.937622 725.885254,234.232555 C727.759668,235.516383 730.202672,235.886761 731.867861,235.85 C735.03,235.927303 744.902207,233.02692 747.11,231.82 L747.11,215.15 Z M779.82,181.715777 L781.972518,163.86 L793.517029,163.86 L793.517029,181.715777 L809.69,181.715777 L809.69,193.615 L793.517029,193.615 L793.52,224.115348 C793.591144,227.288103 794.23308,229.650369 795.445807,231.202146 C796.658534,232.753923 798.552372,233.636376 801.127323,233.849503 L808.98,234.68 L808.98,245.500437 L796.886184,245.500437 C790.380849,245.27737 785.745731,243.523998 782.980828,240.240322 C780.214184,237.079559 778.847241,231.704567 778.88,224.115348 L779.35,193.615 L769.35,193.615 L769.35,184.109176 L779.82,181.715777 Z M864.974523,185.716767 C869.779847,189.98673 870.25,197.946796 870.25,202.052754 C870.25,208.461419 869.35,218.968185 850.35,218.968185 L831.821329,218.968185 C831.972907,225.361023 833.311584,229.672977 835.837359,231.904048 C837.845917,233.780765 841.691247,234.825712 847.373348,235.03889 L868.35,235.03889 L868.35,243.72 C863.757598,244.521966 856.322436,246.173815 844.966852,246.1 C839.431536,246.046334 828.55821,245.573807 823.224625,239.000992 C817.792962,232.659184 817.219256,221.149131 817.200499,213.429908 L817.2,213.012673 C817.2,205.513269 817.836335,193.72702 823.204064,187.744844 C828.531156,181.295544 839.499965,180.918579 844.836648,180.900793 L845.359506,180.9 C850.468917,180.9 860.193729,181.468601 864.974523,185.716767 Z M845.35,191.6 C840.098826,191.452116 836.502919,192.691597 834.562279,195.318442 C832.661811,197.86407 831.691001,202.77459 831.649851,210.05 L850.317075,210.05 C852.705692,209.842763 854.45,209.201638 855.55,208.126625 C857.200193,206.514104 857.200193,203.243629 857.200193,202.346158 C857.200193,200.248959 856.974996,195.812921 854.04427,193.658609 C852.110039,192.202725 849.211949,191.516522 845.35,191.6 Z" id="Combined-Shape" fill="#ffffff"></path>
    </g>
</svg>

<svg xmlns="http://www.w3.org/2000/svg" viewBox="88 88 782 200"><g fill="#fff" fill-rule="evenodd"><path d="M175.625 88c48.394 0 87.625 39.231 87.625 87.625s-39.231 87.625-87.625 87.625S88 224.019 88 175.625 127.231 88 175.625 88Zm-12.76 33.331c-36.6 0-66.272 29.671-66.272 66.272 0 7.745 1.329 15.18 3.77 22.088a47.987 47.987 0 0 1-.385-6.073c0-26.174 21.219-47.393 47.393-47.393 26.175 0 47.393 21.219 47.393 47.393 0 26.175-21.218 47.393-47.393 47.393-1.527 0-3.038-.072-4.53-.214a66.257 66.257 0 0 0 20.024 3.079c36.601 0 66.272-29.671 66.272-66.273 0-36.6-29.67-66.272-66.272-66.272Zm-26.951 63.799c-15.964 0-28.905 12.94-28.905 28.904a28.77 28.77 0 0 0 4.397 15.331 66.594 66.594 0 0 0 8.707 8.878 28.785 28.785 0 0 0 15.8 4.696c15.964 0 28.905-12.941 28.905-28.905 0-15.963-12.94-28.904-28.904-28.904ZM321.158 105.577v4.895H307.53c-1.08.137-1.872.455-2.378.954-.505.5-.8 1.255-.884 2.268v6.442l14.777.191v4.825l-14.777.19v6.457c.04 1.02.335 1.801.884 2.345.55.544 1.343.839 2.378.884h13.627v5.002l-13.627.564c-2.928-.025-5.089-.463-6.482-1.312-1.394-.85-2.278-2.267-2.652-4.254v-23.602c.254-2.235 1.138-3.89 2.652-4.966 1.513-1.076 3.674-1.583 6.482-1.522l13.627.639Zm3.342-.68h6.045v24.994c.219 3.602 2.746 5.403 7.58 5.403 4.836 0 7.363-1.801 7.581-5.403v-24.994h6.045v24.994c-.024 7.123-4.566 10.685-13.625 10.685-9.06 0-13.602-3.562-13.626-10.685v-24.994Zm33.972 0h5.901l8.588 28.238 8.588-28.238h5.901l4.222 35.488h-5.921l-2.852-25.185-7.265 25.185h-5.346l-7.265-25.185-2.851 25.185h-5.922l4.222-35.488Zm58.289.68v4.895h-13.627c-1.08.137-1.872.455-2.378.954-.505.5-.8 1.255-.884 2.268v6.442l14.777.191v4.825l-14.777.19v6.457c.04 1.02.335 1.801.884 2.345.55.544 1.343.839 2.378.884h13.627v5.002l-13.627.564c-2.928-.025-5.089-.463-6.482-1.312-1.394-.85-2.278-2.267-2.652-4.254v-23.602c.254-2.235 1.138-3.89 2.652-4.966 1.514-1.076 3.674-1.583 6.482-1.522l13.627.639Zm3.439-.68h26.292v5.479l-10.108.098v29.911h-6.077v-29.911H420.2v-5.577Zm29.55 0h4.853l16.202 25.376v-25.376h6.004v35.488h-4.862L455.844 115.2v25.185h-6.094v-35.488Zm53.51.68v4.895h-13.626c-1.08.137-1.872.455-2.378.954-.505.5-.8 1.255-.884 2.268v6.442l14.777.191v4.825l-14.777.19v6.457c.04 1.02.335 1.801.884 2.345.55.544 1.343.839 2.378.884h13.627v5.002l-13.627.564c-2.928-.025-5.089-.463-6.482-1.312-1.394-.85-2.278-2.267-2.652-4.254v-23.602c.254-2.235 1.138-3.89 2.652-4.966 1.514-1.076 3.674-1.583 6.482-1.522l13.627.639Zm3.24-.68h26.292v5.479l-10.108.098v29.911h-6.077v-29.911H506.5v-5.577ZM306.45 157.67h14.278l21.301 70.334 21.176-70.334H377.5l10.4 87.83h-14.336l-7.369-62.8-17.397 62.8H335l-17.5-62.45-7 62.45h-14.2l10.15-87.83Zm137.175 28.047c4.805 4.27 5.275 12.23 5.275 16.336 0 6.408-.9 16.915-19.9 16.915h-18.529c.152 6.393 1.49 10.705 4.016 12.936 2.009 1.877 5.854 2.922 11.536 3.135H447v8.681c-4.592.802-12.028 2.454-23.383 2.38-5.535-.054-16.409-.526-21.742-7.099-5.432-6.342-6.006-17.852-6.025-25.571v-.417c0-7.5.636-19.286 6.004-25.268 5.327-6.45 16.296-6.826 21.633-6.844l.523-.001c5.109 0 14.834.569 19.615 4.817ZM424 191.6c-5.251-.148-8.847 1.092-10.788 3.718-1.9 2.546-2.871 7.457-2.912 14.732h18.667c2.389-.207 4.133-.848 5.233-1.923 1.65-1.613 1.65-4.883 1.65-5.78 0-2.098-.225-6.534-3.156-8.688-1.934-1.456-4.832-2.142-8.694-2.059Zm40.94-9.884 2.153-17.856h11.544v17.856h16.173v11.899h-16.173l.003 30.5c.071 3.173.713 5.535 1.926 7.087 1.213 1.552 3.106 2.434 5.681 2.648l7.853.83v10.82h-12.094c-6.505-.223-11.14-1.976-13.905-5.26-2.767-3.16-4.134-8.535-4.101-16.125l.47-30.5h-10v-9.506l10.47-2.393Zm85.335 4c4.805 4.27 5.275 12.23 5.275 16.337 0 6.408-.9 16.915-19.9 16.915h-18.529c.152 6.393 1.49 10.705 4.016 12.936 2.009 1.877 5.854 2.922 11.536 3.135h20.977v8.681c-4.592.802-12.028 2.454-23.383 2.38-5.535-.054-16.409-.526-21.742-7.099-5.432-6.342-6.006-17.852-6.025-25.571v-.417c0-7.5.636-19.286 6.004-25.268 5.327-6.45 16.296-6.826 21.633-6.844l.523-.001c5.109 0 14.834.569 19.615 4.817ZM530.65 191.6c-5.251-.148-8.847 1.092-10.788 3.718-1.9 2.546-2.871 7.457-2.912 14.732h18.667c2.389-.207 4.133-.848 5.233-1.923 1.65-1.613 1.65-4.883 1.65-5.78 0-2.098-.225-6.534-3.156-8.688-1.934-1.456-4.832-2.142-8.694-2.059Zm85.65-3.589c4.18 4.74 6.248 13.237 6.2 25.489.184 11.644-1.783 20.03-5.9 25.159-5.973 7.194-16.242 7.433-22.271 7.441h-.579c-5.93 0-16.768-.517-22.45-7.441-4.147-4.703-6.23-13.089-6.25-25.159-.033-12.306 2.017-20.802 6.15-25.489 5.905-6.695 16.193-7.088 21.753-7.11h1.594c5.553.015 15.78.338 21.753 7.11Zm-22.197 4.49h-.506c-2.65.003-7.863.148-10.82 4.58-2.013 3.02-3.012 8.492-2.996 16.42.01 7.774 1.025 13.176 3.045 16.206 2.769 4.46 8.05 4.793 10.94 4.793h.373c2.949-.009 7.88-.207 10.76-4.793 2.007-3.304 2.965-8.706 2.876-16.207.023-7.892-.984-13.365-3.021-16.419-2.929-4.39-7.956-4.573-10.65-4.58Zm44.631-24.497c5.072-7.803 13.727-11.52 25.966-11.154 9.418 0 18.875 1.187 28.37 3.56v11.316c-21.539-2.506-34.185-2.221-37.937.855-8.52 5.513-7.934 21.072-8.002 28.868-.068 7.797-.041 25.034 7.588 29.02 7.64 4.1 20.22 1.413 28.111-1.149v-20.23h-17.722v-11.423a181.704 181.704 0 0 1 16.14-1.16 167.825 167.825 0 0 1 15.752.333v48.66h-11.07l-2.027-6.07c-8.273 4.637-16.674 6.86-25.203 6.67-9.088-.26-15.743-3.692-19.966-10.296-4.223-6.604-6.334-18.047-6.334-34.329-.097-15.693 2.015-26.85 6.334-33.471Zm117.049 17.49c3.973 3.178 6 8.346 6.077 15.506v44.5h-11.545l-2.495-6.894c-.864.762-11.29 7.604-23.319 7.604-4.21 0-7.738-1.017-11.046-3.71-3.3-2.788-5.155-7-5.155-12.5v-4.98c0-2.354.188-7.636 4.797-11.974 3.403-3.366 9.07-4.912 14.903-4.912h19.103c.063-7.469.063-10.747-2.704-13.1-1.845-1.57-5.311-2.44-10.399-2.608h-21.05v-8.566c10.028-2.7 18.976-2.951 23.52-2.96h1.621c4.698.012 12.293.278 17.692 4.594Zm-8.673 29.656-13.767.707c-3.304.275-5.849 1.136-7.635 2.582-1.825 1.525-2.744 3.73-2.758 6.613v2.967c.077 2.848 1.055 4.919 2.935 6.214 1.875 1.283 4.318 1.654 5.983 1.617 3.162.077 13.034-2.823 15.242-4.03v-16.67Zm32.71-33.434 2.153-17.856h11.544v17.856h16.173v11.899h-16.173l.003 30.5c.071 3.173.713 5.535 1.926 7.087 1.213 1.552 3.106 2.434 5.681 2.648l7.853.83v10.82h-12.094c-6.505-.223-11.14-1.976-13.905-5.26-2.767-3.16-4.134-8.535-4.101-16.125l.47-30.5h-10v-9.506l10.47-2.393Zm85.155 4c4.805 4.27 5.275 12.23 5.275 16.337 0 6.408-.9 16.915-19.9 16.915h-18.529c.152 6.393 1.49 10.705 4.016 12.936 2.009 1.877 5.854 2.922 11.536 3.135h20.977v8.681c-4.592.802-12.028 2.454-23.383 2.38-5.535-.054-16.409-.526-21.742-7.099-5.432-6.342-6.006-17.852-6.025-25.571v-.417c0-7.5.636-19.286 6.004-25.268 5.327-6.45 16.296-6.826 21.633-6.844l.523-.001c5.109 0 14.834.569 19.615 4.817ZM845.35 191.6c-5.251-.148-8.847 1.092-10.788 3.718-1.9 2.546-2.871 7.457-2.912 14.732h18.667c2.389-.207 4.133-.848 5.233-1.923 1.65-1.613 1.65-4.883 1.65-5.78 0-2.098-.225-6.534-3.156-8.688-1.934-1.456-4.832-2.142-8.694-2.059Z"/></g></svg>
